src/actions/32/view-sort-descending-name.svg

<svg xmlns="http://www.w3.org/2000/svg" viewBox="0 0 32 32">
  <defs
     id="defs3051">
    <style
       type="text/css"
       id="current-color-scheme">
      .ColorScheme-Text {
        color:#2e3440;
      }
      </style>
  </defs>
  <path
     style="fill:currentColor;fill-opacity:1;stroke:none" 
     d="M 8.1757812 4 L 8.2246094 4.9003906 L 12.482422 4.9003906 L 8 11.191406 L 8 12 L 14 12 L 13.966797 11.0625 L 9.5253906 11.0625 L 13.925781 4.8613281 L 13.925781 4 L 8.1757812 4 z M 20.5 13.996094 L 20.5 26.085938 L 16.707031 22.292969 L 16 23 L 21 28 L 22 27 L 26 23 L 25.292969 22.292969 L 21.5 26.085938 L 21.5 13.996094 L 20.5 13.996094 z M 11.080078 13.998047 C 10.046938 13.998047 9.1170449 14.189198 8.2890625 14.572266 L 8.6171875 15.458984 C 8.9727054 15.289397 9.3769933 15.158848 9.8300781 15.066406 C 10.283163 14.96931 10.706616 14.919922 11.101562 14.919922 C 11.686296 14.919922 12.112885 15.059278 12.380859 15.335938 C 12.653512 15.611931 12.789062 16.03112 12.789062 16.59375 L 12.789062 17.349609 L 11.554688 17.351562 C 10.31238 17.351562 9.405969 17.54641 8.8359375 17.939453 C 8.2705839 18.327175 7.9882812 18.939469 7.9882812 19.773438 C 7.9882813 20.471072 8.2018322 21.01516 8.6308594 21.408203 C 9.0645644 21.801246 9.6366205 21.998047 10.347656 21.998047 C 11.4102 21.998047 12.273295 21.594518 12.935547 20.785156 L 13.066406 21.845703 L 13.988281 21.845703 L 13.988281 16.769531 C 13.988281 15.789917 13.735062 15.083959 13.228516 14.652344 C 12.726648 14.216073 12.010305 13.998047 11.080078 13.998047 z M 11.863281 18.148438 L 12.791016 18.148438 L 12.791016 19.84375 C 12.211628 20.692349 11.422887 21.117188 10.423828 21.117188 L 10.421875 21.117188 C 10.057001 21.117188 9.753683 21.000344 9.5097656 20.767578 C 9.2658483 20.535477 9.1425781 20.206257 9.1425781 19.779297 C 9.1425781 19.541875 9.164879 19.341917 9.2089844 19.181641 C 9.25309 19.016709 9.3342252 18.866138 9.4511719 18.730469 C 9.5681185 18.590144 9.7291042 18.482108 9.9335938 18.404297 C 10.138083 18.321832 10.398086 18.258737 10.714844 18.214844 C 11.031602 18.17095 11.414875 18.148438 11.863281 18.148438 z "
     id="path8" 
     class="ColorScheme-Text"
     />
</svg>

<svg viewBox="0 0 32 32" xmlns="http://www.w3.org/2000/svg">
 <defs>
  <style type="text/css">.ColorScheme-Text {
        color:#2e3440;
      }</style>
 </defs>
 <path class="ColorScheme-Text" d="m8.1758 4 0.048828 0.90039h4.2578l-4.4824 6.291v0.80859h6l-0.033203-0.9375h-4.4414l4.4004-6.2012v-0.86133h-5.75zm12.324 9.9961v12.09l-3.793-3.793-0.70703 0.70703 5 5 5-5-0.70703-0.70703-3.793 3.793v-12.09h-1zm-9.4199 0.001953c-1.0331 0-1.963 0.19115-2.791 0.57422l0.32812 0.88672c0.35552-0.16959 0.75981-0.30014 1.2129-0.39258 0.45308-0.097096 0.87654-0.14648 1.2715-0.14648 0.58473 0 1.0113 0.13936 1.2793 0.41602 0.27265 0.27599 0.4082 0.69518 0.4082 1.2578v0.75586l-1.2344 0.001953c-1.2423 0-2.1487 0.19485-2.7188 0.58789-0.56535 0.38772-0.84766 1-0.84766 1.834 1e-7 0.69763 0.21355 1.2417 0.64258 1.6348 0.4337 0.39304 1.0058 0.58984 1.7168 0.58984 1.0625 0 1.9256-0.40353 2.5879-1.2129l0.13086 1.0605h0.92188v-5.0762c0-0.97961-0.25322-1.6856-0.75976-2.1172-0.50187-0.43627-1.2182-0.6543-2.1484-0.6543zm0.7832 4.1504h0.92774v1.6953c-0.57939 0.8486-1.3681 1.2734-2.3672 1.2734h-0.001953c-0.36487 0-0.66819-0.11684-0.91211-0.34961-0.24392-0.2321-0.36719-0.56132-0.36719-0.98828 0-0.23742 0.022301-0.43738 0.066406-0.59766 0.044106-0.16493 0.12524-0.3155 0.24219-0.45117 0.11695-0.14032 0.27793-0.24836 0.48242-0.32617 0.20449-0.082465 0.46449-0.14556 0.78125-0.18945 0.31676-0.043894 0.70003-0.066406 1.1484-0.066406z" fill="currentColor"/>
</svg>
